svgs/sharp-solid/bin-bottles.svg

<svg xmlns="http://www.w3.org/2000/svg" viewBox="0 0 640 512"><!--! Font Awesome Pro 6.6.0 by @fontawesome - https://fontawesome.com License - https://fontawesome.com/license (Commercial License) Copyright 2024 Fonticons, Inc. --><path d="M256 0l0 32 16 0 0 32-16 0L128 64l-16 0 0-32 16 0 0-32L256 0zM32 144l96-48 128 0 63.6 31.8L352 144s0 0 0 0l0 48L32 192l0-48zm543.6-8l0 56L384 192l0-48 0-19.8-17.7-8.8L321.8 93.1l61.8-29 0-64.1 128 0 0 64.1 64 30 0 41.9zM0 224l640 0 0 64-32 0L576 512 64 512 32 288 0 288l0-64z"/></svg>

<svg xmlns="http://www.w3.org/2000/svg" viewBox="0 0 640 512"><!--! Font Awesome Pro 6.4.2 by @fontawesome - https://fontawesome.com License - https://fontawesome.com/license (Commercial License) Copyright 2023 Fonticons, Inc. --><path d="M256 0V32h16V64H256 128 112V32h16V0H256zM32 144l96-48H256l63.6 31.8L352 144h0v48H32V144zm543.6-8v56H384V144 124.2l-17.7-8.8L321.8 93.1l61.8-29V0h128V64.1l64 30V136zM0 224H640v64H608L576 512H64L32 288H0V224z"/></svg>
